icons/1_Primary/Report URI.svg

<svg width="1024" height="1024" fill="none" xmlns="http://www.w3.org/2000/svg"><g clip-path="url(#a)"><path d="M512 1024c282.77 0 512-229.23 512-512S794.77 0 512 0 0 229.23 0 512s229.23 512 512 512Z" fill="#F8C18C"/><path d="M709.85 455.54a95.146 95.146 0 0 0-18.16-5.7 141.645 141.645 0 0 0-14.78-53.21 178.506 178.506 0 0 1-19.85 34.84c-20.48 27.66-46.88 50.25-74.75 69.68-56.59 38.64-120.57 65.46-187.08 83.41-42.86 11.4-87 19.22-132.18 21.75A107.994 107.994 0 0 0 355.32 658h17.53c61.867-.213 123.737-.353 185.61-.42 32.94 0 66.09.42 99 .21 21.12-.21 38.85.21 57.86-10.35 17.95-9.92 32.73-24.92 44.34-41.6a99.66 99.66 0 0 0-49.83-150.34l.02.04Zm-322.22 94.81c64.4-11.4 128-31.67 185.18-64.19 28.51-16.26 55.53-35.9 77.28-60.39a157.683 157.683 0 0 0 23.44-35.26 145.003 145.003 0 0 0-123.922-74.519A144.997 144.997 0 0 0 422.89 385.65a75.317 75.317 0 0 0-35.47-8.65 76.35 76.35 0 0 0-76.23 73.48c-38.22 17.31-64.19 56-64.19 99 0 3.38.21 6.76.42 10.14 46.46 2.55 93.76-1.04 140.21-9.27Z" fill="#fff"/></g><defs><clipPath id="a"><path fill="#fff" d="M0 0h1024v1024H0z"/></clipPath></defs></svg>

<svg width="1024" height="1024" viewBox="0 0 1024 1024" fill="none" xmlns="http://www.w3.org/2000/svg">
<g clip-path="url(#clip0_2_3327)">
<path d="M512 1024C794.77 1024 1024 794.77 1024 512C1024 229.23 794.77 0 512 0C229.23 0 0 229.23 0 512C0 794.77 229.23 1024 512 1024Z" fill="#F8C18C"/>
<path d="M709.85 455.54C704.002 453.038 697.919 451.128 691.69 449.84C690.302 431.305 685.28 413.225 676.91 396.63C671.623 408.952 664.964 420.639 657.06 431.47C636.58 459.13 610.18 481.72 582.31 501.15C525.72 539.79 461.74 566.61 395.23 584.56C352.37 595.96 308.23 603.78 263.05 606.31C272.707 622.115 286.266 635.17 302.425 644.222C318.583 653.275 336.799 658.019 355.32 658H372.85C434.717 657.787 496.587 657.647 558.46 657.58C591.4 657.58 624.55 658 657.46 657.79C678.58 657.58 696.31 658 715.32 647.44C733.27 637.52 748.05 622.52 759.66 605.84C768.29 593.18 773.885 578.701 776.01 563.527C778.135 548.354 776.732 532.895 771.912 518.351C767.091 503.807 758.983 490.571 748.216 479.671C737.448 468.77 724.313 460.499 709.83 455.5L709.85 455.54ZM387.63 550.35C452.03 538.95 515.63 518.68 572.81 486.16C601.32 469.9 628.34 450.26 650.09 425.77C659.453 415.124 667.337 403.264 673.53 390.51C661.201 368.332 643.267 349.777 621.521 336.7C599.775 323.624 574.978 316.483 549.608 315.991C524.238 315.499 499.182 321.673 476.946 333.897C454.709 346.121 436.07 363.966 422.89 385.65C411.955 379.901 399.774 376.931 387.42 377C367.679 377.017 348.712 384.68 334.499 398.38C320.286 412.08 311.932 430.753 311.19 450.48C272.97 467.79 247 506.48 247 549.48C247 552.86 247.21 556.24 247.42 559.62C293.88 562.17 341.18 558.58 387.63 550.35Z" fill="white"/>
</g>
<defs>
<clipPath id="clip0_2_3327">
<rect width="1024" height="1024" fill="white"/>
</clipPath>
</defs>
</svg>
